app/dist/common/images/consolidated-communications.svg

<svg fill="none" height="18" viewBox="0 0 18 18" width="18" xmlns="http://www.w3.org/2000/svg" xmlns:xlink="http://www.w3.org/1999/xlink"><clipPath id="a"><path d="m0 0h18v18h-18z"/></clipPath><clipPath id="b"><path d="m0 0h18v18h-18z"/></clipPath><g clip-path="url(#a)"><path d="m0 0h18v18h-18z" fill="#f0f3fa"/><g clip-path="url(#b)"><g opacity=".6"><g stroke="#e0e3eb"><circle cx="9" cy="9" r="8.875" stroke-width=".25"/><rect height="7.9" rx=".95" stroke-width=".1" width="11.9" x="3.05" y="5.05"/><rect height="5.9" rx=".95" stroke-width=".1" width="13.9" x="2.05" y="6.05"/><rect height="9.9" rx=".95" stroke-width=".1" width="9.9" x="4.05" y="4.05"/><rect height="11.9" rx=".95" stroke-width=".1" width="7.9" x="5.05" y="3.05"/><rect height="13.9" rx=".95" stroke-width=".1" width="5.9" x="6.05" y="2.05"/></g><circle cx="9" cy="9" r="4.875" stroke="#c1c4cd" stroke-width=".25"/></g></g><path d="m9.07798 3c-4.43374 0-5.89938 3.7048-6.07798 5.55721.28464-1.37277 1.58396-4.11829 4.50406-4.11829 3.12104 0 3.92364 2.2714 3.93474 3.4071 0 3.20198-2.73477 3.78198-4.10218 3.67168.20093.5458 1.0716 1.6374 2.94688 1.6374 3.3354 0 4.2808-2.9329 4.3366-4.39942 0-1.91856-1.1084-5.75568-5.54212-5.75568z" fill="#0154a3"/><path d="m8.92202 15c4.43378 0 5.89938-3.7048 6.07798-5.55721-.2846 1.37281-1.584 4.11831-4.5041 4.11831-3.12099 0-3.92357-2.2714-3.93473-3.4071 0-3.20203 2.7348-3.78201 4.10223-3.67174-.2009-.5458-1.07162-1.63739-2.94692-1.63739-3.33535-.00001-4.28081 2.93297-4.33662 4.39945 0 1.91858 1.10843 5.75568 5.54216 5.75568z" fill="#8b8c91"/></g></svg>

<!-- by TradingView --><svg width="18" height="18" viewBox="0 0 18 18" fill="none" xmlns="http://www.w3.org/2000/svg">
<g clip-path="url(#clip0_5723_201509)">
<rect width="18" height="18" fill="#F0F3FA"/>
<g clip-path="url(#clip1_5723_201509)">
<g opacity="0.6">
<circle cx="9" cy="9" r="8.875" stroke="#E0E3EB" stroke-width="0.25"/>
<rect x="3.05" y="5.05" width="11.9" height="7.9" rx="0.95" stroke="#E0E3EB" stroke-width="0.1"/>
<rect x="2.05" y="6.05" width="13.9" height="5.9" rx="0.95" stroke="#E0E3EB" stroke-width="0.1"/>
<rect x="4.05" y="4.05" width="9.9" height="9.9" rx="0.95" stroke="#E0E3EB" stroke-width="0.1"/>
<rect x="5.05" y="3.05" width="7.9" height="11.9" rx="0.95" stroke="#E0E3EB" stroke-width="0.1"/>
<rect x="6.05" y="2.05" width="5.9" height="13.9" rx="0.95" stroke="#E0E3EB" stroke-width="0.1"/>
<circle cx="9" cy="9" r="4.875" stroke="#C1C4CD" stroke-width="0.25"/>
</g>
</g>
<path d="M9.07798 3C4.64424 3 3.1786 6.7048 3 8.55721C3.28464 7.18444 4.58396 4.43892 7.50406 4.43892C10.6251 4.43892 11.4277 6.71032 11.4388 7.84602C11.4388 11.048 8.70403 11.628 7.33662 11.5177C7.53755 12.0635 8.40822 13.1551 10.2835 13.1551C13.6189 13.1551 14.5643 10.2222 14.6201 8.75568C14.6201 6.83712 13.5117 3 9.07798 3Z" fill="#0154A3"/>
<path d="M8.92202 15C13.3558 15 14.8214 11.2952 15 9.44279C14.7154 10.8156 13.416 13.5611 10.4959 13.5611C7.37491 13.5611 6.57233 11.2897 6.56117 10.154C6.56117 6.95197 9.29597 6.37199 10.6634 6.48226C10.4625 5.93646 9.59178 4.84487 7.71648 4.84487C4.38113 4.84486 3.43567 7.77784 3.37986 9.24432C3.37986 11.1629 4.48829 15 8.92202 15Z" fill="#8B8C91"/>
</g>
<defs>
<clipPath id="clip0_5723_201509">
<rect width="18" height="18" fill="white"/>
</clipPath>
<clipPath id="clip1_5723_201509">
<rect width="18" height="18" fill="white"/>
</clipPath>
</defs>
</svg>
